X: 448
T: the Laird of MacIntosh
T: Miss Douglas
O: 1881
R: Reel
B: The Athole Collection
M: C|
L: 1/8
K: G
B/c/ |\
d2Bg dGBG | FDAD FAA B/c/ | d2Bg dGBG | FDAc BGG B/c/ | d2Bg dGBG |
FDAD FAA B/c/ | dcBg ecAG | FDFA BGGz |]| dggf eaeg | fdef gfga |
dggf eaeg | fadf g3 g/f/ | gbfa egdB | ceBd ABce | dcBg dcBG | FDFd G3 |]
